style-guide/assets/wds-icons-bell-small.svg

<svg xmlns="http://www.w3.org/2000/svg" xmlns:xlink="http://www.w3.org/1999/xlink" width="18" height="18" viewBox="0 0 18 18">
  <defs>
    <path id="bell-a" d="M5.21956379,10 L6.39256379,4.138 C6.64056379,2.898 7.73656379,2 8.99956379,2 C10.2635638,2 11.3595638,2.898 11.6075638,4.138 L11.6075638,4.139 L12.7805638,10 L5.21956379,10 Z M13.5685638,3.746 C13.1345638,1.575 11.2125638,0 8.99956379,0 C6.78556379,0 4.86556379,1.575 4.43156379,3.746 L3.01956379,10.804 C2.96056379,11.098 3.03656379,11.402 3.22656379,11.634 C3.41656379,11.865 3.69956379,12 3.99956379,12 L13.9995638,12 C14.2995638,12 14.5825638,11.865 14.7735638,11.634 C14.9625638,11.402 15.0385638,11.098 14.9805638,10.804 L13.5685638,3.746 Z M10.9998638,14 C10.4468638,14 9.99986379,14.447 9.99986379,15 C9.99986379,15.551 9.55186379,16 8.99986379,16 C8.44786379,16 7.99986379,15.551 7.99986379,15 C7.99986379,14.447 7.55286379,14 6.99986379,14 C6.44686379,14 5.99986379,14.447 5.99986379,15 C5.99986379,16.654 7.34586379,18 8.99986379,18 C10.6538638,18 11.9998638,16.654 11.9998638,15 C11.9998638,14.447 11.5528638,14 10.9998638,14"/>
  </defs>
  <use fill-rule="evenodd" xlink:href="#bell-a"/>
</svg>

<svg viewBox="0 0 18 18" xmlns="http://www.w3.org/2000/svg">
  <path d="M5.22 10l1.173-5.862A2.665 2.665 0 0 1 9 2c1.264 0 2.36.898 2.608 2.138v.001L12.78 10H5.22zm8.349-6.254A4.672 4.672 0 0 0 8.999 0a4.67 4.67 0 0 0-4.567 3.746L3.02 10.804A.999.999 0 0 0 4 12h10c.3 0 .583-.135.774-.366.189-.232.265-.536.207-.83l-1.412-7.058zM10.999 14a1 1 0 0 0-1 1 1.001 1.001 0 0 1-2 0 1 1 0 1 0-2 0c0 1.654 1.347 3 3 3 1.655 0 3-1.346 3-3a1 1 0 0 0-1-1"/>
</svg>
